;START_OF_HEADER
;HEADER_VERSION:0.1
;FLAVOR:Griffin
;GENERATOR.NAME:Cura_SteamEngine
;GENERATOR.VERSION:5.0.0
;GENERATOR.BUILD_DATE:2022-05-17
;TARGET_MACHINE.NAME:Ultimaker 3
;EXTRUDER_TRAIN.0.INITIAL_TEMPERATURE:205
;EXTRUDER_TRAIN.0.MATERIAL.VOLUME_USED:14768
;EXTRUDER_TRAIN.0.MATERIAL.GUID:506c9f0d-e3aa-4bd4-b2d2-23e2425b1aa9
;EXTRUDER_TRAIN.0.NOZZLE.DIAMETER:0.4
;EXTRUDER_TRAIN.0.NOZZLE.NAME:AA 0.4
;BUILD_PLATE.TYPE:glass
;BUILD_PLATE.INITIAL_TEMPERATURE:60
;PRINT.TIME:13488
;PRINT.GROUPS:1
;PRINT.SIZE.MIN.X:9
;PRINT.SIZE.MIN.Y:6
;PRINT.SIZE.MIN.Z:0.27
;PRINT.SIZE.MAX.X:212.417
;PRINT.SIZE.MAX.Y:139.85
;PRINT.SIZE.MAX.Z:5.77
;END_OF_HEADER
;Generated with Cura_SteamEngine 5.0.0
T0
M82 ;absolute extrusion mode

G92 E0
M109 S205
G0 F15000 X9 Y6 Z2
G280
G1 F1500 E-6.5
;LAYER_COUNT:36
;LAYER:0
M107
M204 S429
M205 X20 Y20
G1 F600 Z2.27
G0 F4285.7 X25.726 Y75.429 Z2.27
G1 F600 Z0.27
G0 F4285.7 X20.717 Y82.11
M204 S1000
;TYPE:SKIRT
G1 F1500 E0
G1 F1200 X20.757 Y81.365 E0.01516
G1 X20.876 Y80.629 E0.0303
G1 X21.074 Y79.91 E0.04545
G1 X21.347 Y79.216 E0.0606
G1 X21.694 Y78.555 E0.07577
G1 X22.108 Y77.935 E0.09092
G1 X22.587 Y77.363 E0.10607
G1 X23.124 Y76.845 E0.12123
G1 X23.714 Y76.388 E0.13639
G1 X24.349 Y75.997 E0.15154
G1 X25.022 Y75.676 E0.16669
G1 X25.726 Y75.429 E0.18185
G1 X26.452 Y75.259 E0.19699
G1 X27.193 Y75.167 E0.21216
G1 X27.677 Y75.15 E0.222
G1 X205.457 Y75.15 E3.83367
G1 X206.202 Y75.19 E3.84883
G1 X206.938 Y75.309 E3.86398
G1 X207.657 Y75.507 E3.87913
G1 X208.351 Y75.78 E3.89428
G1 X209.012 Y76.127 E3.90944
G1 X209.632 Y76.541 E3.92459
G1 X210.204 Y77.02 E3.93975
G1 X210.722 Y77.557 E3.9549
G1 X211.179 Y78.147 E3.97007
G1 X211.57 Y78.782 E3.98522
G1 X211.891 Y79.455 E4.00036
G1 X212.138 Y80.159 E4.01552
G1 X212.308 Y80.885 E4.03067
G1 X212.4 Y81.626 E4.04584
G1 X212.417 Y82.11 E4.05568
G1 X212.417 Y132.89 E5.08729
G1 X212.377 Y133.635 E5.10245
G1 X212.258 Y134.371 E5.11759
G1 X212.06 Y135.09 E5.13275
G1 X211.787 Y135.784 E5.1479
G1 X211.44 Y136.445 E5.16306
G1 X211.026 Y137.065 E5.17821
G1 X210.547 Y137.637 E5.19336
G1 X210.01 Y138.155 E5.20852
G1 X209.42 Y138.612 E5.22368
G1 X208.785 Y139.003 E5.23883
G1 X208.112 Y139.324 E5.25398
G1 X207.408 Y139.571 E5.26914
G1 X206.682 Y139.741 E5.28429
G1 X205.941 Y139.833 E5.29946
G1 X205.457 Y139.85 E5.30929
G1 X27.677 Y139.85 E8.92097
G1 X26.932 Y139.81 E8.93612
G1 X26.196 Y139.691 E8.95127
G1 X25.477 Y139.493 E8.96642
G1 X24.783 Y139.22 E8.98157
G1 X24.122 Y138.873 E8.99674
G1 X23.502 Y138.459 E9.01188
G1 X22.93 Y137.98 E9.02704
G1 X22.412 Y137.443 E9.0422
G1 X21.955 Y136.853 E9.05736
G1 X21.564 Y136.218 E9.07251
G1 X21.243 Y135.545 E9.08765
G1 X20.996 Y134.841 E9.10281
G1 X20.826 Y134.115 E9.11796
G1 X20.734 Y133.374 E9.13313
G1 X20.717 Y132.89 E9.14297
G1 X20.717 Y82.11 E10.17458
M204 S429
G0 F4285.7 X21.197 Y82.11
M204 S1000
G1 F1200 X21.237 Y81.391 E10.18921
G1 X21.356 Y80.682 E10.20382
G1 X21.554 Y79.99 E10.21844
G1 X21.827 Y79.324 E10.23306
G1 X22.172 Y78.692 E10.24769
G1 X22.585 Y78.103 E10.26231
G1 X23.061 Y77.563 E10.27693
G1 X23.593 Y77.079 E10.29154
G1 X24.177 Y76.657 E10.30618
G1 X24.803 Y76.302 E10.3208
G1 X25.465 Y76.019 E10.33542
G1 X26.154 Y75.812 E10.35004
G1 X26.862 Y75.682 E10.36466
G1 X27.677 Y75.63 E10.38125
G1 X205.457 Y75.63 E13.99293
G1 X206.176 Y75.67 E14.00756
G1 X206.885 Y75.789 E14.02216
G1 X207.577 Y75.987 E14.03678
G1 X208.243 Y76.26 E14.05141
G1 X208.875 Y76.605 E14.06603
G1 X209.464 Y77.018 E14.08065
G1 X210.004 Y77.494 E14.09527
G1 X210.488 Y78.026 E14.10988
G1 X210.91 Y78.61 E14.12452
G1 X211.265 Y79.236 E14.13914
G1 X211.548 Y79.898 E14.15377
G1 X211.755 Y80.587 E14.16838
G1 X211.885 Y81.295 E14.18301
G1 X211.937 Y82.11 E14.1996
G1 X211.937 Y132.89 E15.23121
G1 X211.897 Y133.609 E15.24584
G1 X211.778 Y134.318 E15.26045
G1 X211.58 Y135.01 E15.27507
G1 X211.307 Y135.676 E15.28969
G1 X210.962 Y136.308 E15.30432
G1 X210.549 Y136.897 E15.31893
G1 X210.073 Y137.437 E15.33356
G1 X209.541 Y137.921 E15.34817
G1 X208.957 Y138.343 E15.36281
G1 X208.331 Y138.698 E15.37743
G1 X207.669 Y138.981 E15.39205
G1 X206.98 Y139.188 E15.40667
G1 X206.272 Y139.318 E15.42129
G1 X205.457 Y139.37 E15.43788
G1 X27.677 Y139.37 E19.04955
G1 X26.958 Y139.33 E19.06418
G1 X26.249 Y139.211 E19.07879
G1 X25.557 Y139.013 E19.09341
G1 X24.891 Y138.74 E19.10803
G1 X24.259 Y138.395 E19.12266
G1 X23.67 Y137.982 E19.13728
G1 X23.13 Y137.506 E19.1519
G1 X22.646 Y136.974 E19.16651
G1 X22.224 Y136.39 E19.18115
G1 X21.869 Y135.764 E19.19577
G1 X21.586 Y135.102 E19.2104
G1 X21.379 Y134.413 E19.22501
G1 X21.249 Y133.705 E19.23963
G1 X21.197 Y132.89 E19.25622
G1 X21.197 Y82.11 E20.28784
M204 S429
G0 F4285.7 X21.677 Y82.11
M204 S1000
G1 F1200 X21.717 Y81.419 E20.3019
G1 X21.836 Y80.736 E20.31599
G1 X22.034 Y80.073 E20.33004
G1 X22.306 Y79.436 E20.34412
G1 X22.65 Y78.835 E20.35818
G1 X23.061 Y78.277 E20.37226
G1 X23.533 Y77.771 E20.38632
G1 X24.061 Y77.322 E20.4004
G1 X24.636 Y76.937 E20.41446
G1 X25.253 Y76.622 E20.42853
G1 X25.901 Y76.379 E20.44259
G1 X26.574 Y76.212 E20.45668
G1 X27.26 Y76.124 E20.47073
G1 X27.677 Y76.11 E20.47921
G1 X205.457 Y76.11 E24.09088
G1 X206.148 Y76.15 E24.10494
G1 X206.831 Y76.269 E24.11902
G1 X207.494 Y76.467 E24.13308
G1 X208.131 Y76.739 E24.14715
G1 X208.732 Y77.083 E24.16122
G1 X209.29 Y77.494 E24.1753
G1 X209.796 Y77.966 E24.18936
G1 X210.245 Y78.494 E24.20344
G1 X210.63 Y79.069 E24.2175
G1 X210.945 Y79.686 E24.23157
G1 X211.188 Y80.334 E24.24563
G1 X211.355 Y81.007 E24.25972
G1 X211.443 Y81.693 E24.27377
G1 X211.457 Y82.11 E24.28224
G1 X211.457 Y132.89 E25.31386
G1 X211.417 Y133.581 E25.32792
G1 X211.298 Y134.264 E25.342
G1 X211.1 Y134.927 E25.35606
G1 X210.828 Y135.564 E25.37013
G1 X210.484 Y136.165 E25.3842
G1 X210.073 Y136.723 E25.39828
G1 X209.601 Y137.229 E25.41234
G1 X209.073 Y137.678 E25.42642
G1 X208.498 Y138.063 E25.44048
G1 X207.881 Y138.378 E25.45455
G1 X207.233 Y138.621 E25.46861
G1 X206.56 Y138.788 E25.4827
G1 X205.874 Y138.876 E25.49675
G1 X205.457 Y138.89 E25.50522
G1 X27.677 Y138.89 E29.11689
G1 X26.986 Y138.85 E29.13096
G1 X26.303 Y138.731 E29.14504
G1 X25.64 Y138.533 E29.1591
G1 X25.003 Y138.261 E29.17317
G1 X24.402 Y137.917 E29.18724
G1 X23.844 Y137.506 E29.20132
G1 X23.338 Y137.034 E29.21537
G1 X22.889 Y136.506 E29.22945
G1 X22.504 Y135.931 E29.24351
G1 X22.189 Y135.314 E29.25759
G1 X21.946 Y134.666 E29.27165
G1 X21.779 Y133.993 E29.28573
G1 X21.691 Y133.307 E29.29978
G1 X21.677 Y132.89 E29.30826
G1 X21.677 Y82.11 E30.33988
M204 S429
G0 F4285.7 X22.157 Y82.11
M204 S1000
G1 F1200 X22.197 Y81.447 E30.35337
G1 X22.316 Y80.794 E30.36685
G1 X22.513 Y80.159 E30.38036
G1 X22.785 Y79.553 E30.39385
G1 X23.127 Y78.984 E30.40734
G1 X23.536 Y78.46 E30.42085
G1 X24.004 Y77.989 E30.43433
G1 X24.526 Y77.578 E30.44783
G1 X25.093 Y77.232 E30.46133
G1 X25.698 Y76.957 E30.47483
G1 X26.331 Y76.757 E30.48831
G1 X26.984 Y76.634 E30.50181
G1 X27.677 Y76.59 E30.51592
G1 X205.457 Y76.59 E34.12759
G1 X206.12 Y76.63 E34.14108
G1 X206.773 Y76.749 E34.15457
G1 X207.408 Y76.946 E34.16808
G1 X208.014 Y77.218 E34.18157
G1 X208.583 Y77.56 E34.19506
G1 X209.107 Y77.969 E34.20856
G1 X209.578 Y78.437 E34.22205
G1 X209.989 Y78.959 E34.23555
G1 X210.335 Y79.526 E34.24904
G1 X210.61 Y80.131 E34.26254
G1 X210.81 Y80.764 E34.27603
G1 X210.933 Y81.417 E34.28953
G1 X210.977 Y82.11 E34.30364
G1 X210.977 Y132.89 E35.33525
G1 X210.937 Y133.553 E35.34874
G1 X210.818 Y134.206 E35.36223
G1 X210.621 Y134.841 E35.37574
G1 X210.349 Y135.447 E35.38923
G1 X210.007 Y136.016 E35.40272
G1 X209.598 Y136.54 E35.41622
G1 X209.13 Y137.011 E35.42971
G1 X208.608 Y137.422 E35.44321
G1 X208.041 Y137.768 E35.4567
G1 X207.436 Y138.043 E35.4702
G1 X206.803 Y138.243 E35.48369
G1 X206.15 Y138.366 E35.49719
G1 X205.457 Y138.41 E35.5113
G1 X27.677 Y138.41 E39.12297
G1 X27.014 Y138.37 E39.13646
G1 X26.361 Y138.251 E39.14995
G1 X25.726 Y138.054 E39.16345
G1 X25.12 Y137.782 E39.17695
G1 X24.551 Y137.44 E39.19043
G1 X24.027 Y137.031 E39.20394
G1 X23.556 Y136.563 E39.21743
G1 X23.145 Y136.041 E39.23092
G1 X22.799 Y135.474 E39.24442
G1 X22.524 Y134.869 E39.25792
G1 X22.324 Y134.236 E39.2714
G1 X22.201 Y133.583 E39.2849
G1 X22.157 Y132.89 E39.29901
G1 X22.157 Y82.11 E40.33063
M204 S429
G0 F4285.7 X22.637 Y82.11
M204 S1000
G1 F1200 X22.677 Y81.477 E40.34351
G1 X22.796 Y80.853 E40.35642
G1 X22.993 Y80.25 E40.3693
G1 X23.264 Y79.676 E40.3822
G1 X23.605 Y79.141 E40.39509
G1 X24.01 Y78.652 E40.40799
G1 X24.474 Y78.219 E40.42088
G1 X24.988 Y77.847 E40.43377
G1 X25.545 Y77.543 E40.44666
G1 X26.136 Y77.311 E40.45956
G1 X26.751 Y77.156 E40.47245
G1 X27.677 Y77.07 E40.49134
G1 X205.457 Y77.07 E44.10301
G1 X206.09 Y77.11 E44.1159
G1 X206.714 Y77.229 E44.1288
G1 X207.317 Y77.426 E44.14169
G1 X207.891 Y77.697 E44.15458
G1 X208.426 Y78.038 E44.16747
G1 X208.915 Y78.443 E44.18037
G1 X209.348 Y78.907 E44.19326
G1 X209.72 Y79.421 E44.20615
G1 X210.024 Y79.978 E44.21905
G1 X210.256 Y80.569 E44.23194
G1 X210.411 Y81.184 E44.24483
G1 X210.497 Y82.11 E44.26372
G1 X210.497 Y132.89 E45.29534
G1 X210.457 Y133.523 E45.30822
G1 X210.338 Y134.147 E45.32113
G1 X210.141 Y134.75 E45.33402
G1 X209.87 Y135.324 E45.34691
G1 X209.529 Y135.859 E45.3598
G1 X209.124 Y136.348 E45.3727
G1 X208.66 Y136.781 E45.38559
G1 X208.146 Y137.153 E45.39848
G1 X207.589 Y137.457 E45.41137
G1 X206.998 Y137.689 E45.42427
G1 X206.383 Y137.844 E45.43716
G1 X205.457 Y137.93 E45.45605
G1 X27.677 Y137.93 E49.06772
G1 X27.044 Y137.89 E49.08061
G1 X26.42 Y137.771 E49.09351
G1 X25.817 Y137.574 E49.1064
G1 X25.243 Y137.303 E49.1193
G1 X24.708 Y136.962 E49.13218
G1 X24.219 Y136.557 E49.14508
G1 X23.786 Y136.093 E49.15798
G1 X23.414 Y135.579 E49.17087
G1 X23.11 Y135.022 E49.18376
G1 X22.878 Y134.431 E49.19666
G1 X22.723 Y133.816 E49.20954
G1 X22.637 Y132.89 E49.22843
G1 X22.637 Y82.11 E50.26005
M204 S429
G0 F4285.7 X23.117 Y82.11
M204 S1000
G1 F1200 X23.157 Y81.508 E50.27231
G1 X23.276 Y80.916 E50.28457
G1 X23.472 Y80.345 E50.29684
G1 X23.742 Y79.805 E50.3091
G1 X24.081 Y79.306 E50.32136
G1 X24.483 Y78.855 E50.33363
G1 X24.941 Y78.462 E50.34589
G1 X25.447 Y78.132 E50.35817
G1 X25.992 Y77.873 E50.37042
G1 X26.566 Y77.687 E50.38268
G1 X27.16 Y77.579 E50.39495
G1 X27.677 Y77.55 E50.40547
G1 X205.457 Y77.55 E54.01714
G1 X206.059 Y77.59 E54.0294
G1 X206.651 Y77.709 E54.04166
G1 X207.222 Y77.905 E54.05393
G1 X207.762 Y78.175 E54.06619
G1 X208.261 Y78.514 E54.07845
G1 X208.712 Y78.916 E54.09072
G1 X209.105 Y79.374 E54.10298
G1 X209.435 Y79.88 E54.11525
G1 X209.694 Y80.425 E54.12751
G1 X209.88 Y80.999 E54.13977
G1 X209.988 Y81.593 E54.15204
G1 X210.017 Y82.11 E54.16256
G1 X210.017 Y132.89 E55.19417
G1 X209.977 Y133.492 E55.20643
G1 X209.858 Y134.084 E55.2187
G1 X209.662 Y134.655 E55.23096
G1 X209.392 Y135.195 E55.24323
G1 X209.053 Y135.694 E55.25548
G1 X208.651 Y136.145 E55.26775
G1 X208.193 Y136.538 E55.28002
G1 X207.687 Y136.868 E55.29229
G1 X207.142 Y137.127 E55.30455
G1 X206.568 Y137.313 E55.3168
G1 X205.974 Y137.421 E55.32907
G1 X205.457 Y137.45 E55.33959
G1 X27.677 Y137.45 E58.95126
G1 X27.075 Y137.41 E58.96352
G1 X26.483 Y137.291 E58.97579
G1 X25.912 Y137.095 E58.98805
G1 X25.372 Y136.825 E59.00031
G1 X24.873 Y136.486 E59.01257
G1 X24.422 Y136.084 E59.02484
G1 X24.029 Y135.626 E59.0371
G1 X23.699 Y135.12 E59.04938
G1 X23.44 Y134.575 E59.06164
G1 X23.254 Y134.001 E59.07389
G1 X23.146 Y133.407 E59.08616
G1 X23.117 Y132.89 E59.09668
G1 X23.117 Y82.11 E60.12829
M204 S429
G0 F4285.7 X23.597 Y82.11
M204 S1000
G1 F1200 X23.637 Y81.54 E60.1399
G1 X23.756 Y80.982 E60.15149
G1 X23.952 Y80.446 E60.16309
G1 X24.221 Y79.942 E60.17469
G1 X24.557 Y79.481 E60.18628
G1 X24.955 Y79.071 E60.19789
G1 X25.406 Y78.721 E60.20949
G1 X25.901 Y78.437 E60.22108
G1 X26.431 Y78.225 E60.23268
G1 X26.986 Y78.089 E60.24429
G1 X27.677 Y78.03 E60.25838
G1 X205.457 Y78.03 E63.87005
G1 X206.027 Y78.07 E63.88166
G1 X206.585 Y78.189 E63.89325
G1 X207.121 Y78.385 E63.90484
G1 X207.625 Y78.654 E63.91645
G1 X208.086 Y78.99 E63.92804
G1 X208.496 Y79.388 E63.93965
G1 X208.846 Y79.839 E63.95124
G1 X209.13 Y80.334 E63.96284
G1 X209.342 Y80.864 E63.97443
G1 X209.478 Y81.419 E63.98604
G1 X209.537 Y82.11 E64.00013
G1 X209.537 Y132.89 E65.03175
G1 X209.497 Y133.46 E65.04336
G1 X209.378 Y134.018 E65.05495
G1 X209.182 Y134.554 E65.06654
G1 X208.913 Y135.058 E65.07815
G1 X208.577 Y135.519 E65.08974
G1 X208.179 Y135.929 E65.10134
G1 X207.728 Y136.279 E65.11294
G1 X207.233 Y136.563 E65.12454
G1 X206.703 Y136.775 E65.13613
G1 X206.148 Y136.911 E65.14774
G1 X205.457 Y136.97 E65.16183
G1 X27.677 Y136.97 E68.7735
G1 X27.107 Y136.93 E68.78511
G1 X26.549 Y136.811 E68.7967
G1 X26.013 Y136.615 E68.80829
G1 X25.509 Y136.346 E68.8199
G1 X25.048 Y136.01 E68.83149
G1 X24.638 Y135.612 E68.8431
G1 X24.288 Y135.161 E68.8547
G1 X24.004 Y134.666 E68.86629
G1 X23.792 Y134.136 E68.87789
G1 X23.656 Y133.581 E68.88949
G1 X23.597 Y132.89 E68.90358
G1 X23.597 Y82.11 E69.9352
M204 S429
G0 F4285.7 X24.077 Y82.11
M204 S1000
G1 F1200 X24.117 Y81.575 E69.9461
G1 X24.236 Y81.052 E69.957
G1 X24.431 Y80.553 E69.96788
G1 X24.699 Y80.088 E69.97878
G1 X25.032 Y79.668 E69.98967
G1 X25.424 Y79.302 E70.00057
G1 X25.866 Y78.999 E70.01145
G1 X26.349 Y78.764 E70.02237
G1 X26.86 Y78.604 E70.03324
G1 X27.39 Y78.521 E70.04414
G1 X27.677 Y78.51 E70.04998
G1 X205.457 Y78.51 E73.66165
G1 X205.992 Y78.55 E73.67255
G1 X206.515 Y78.669 E73.68344
G1 X207.014 Y78.864 E73.69433
G1 X207.479 Y79.132 E73.70523
G1 X207.899 Y79.465 E73.71612
G1 X208.265 Y79.857 E73.72702
G1 X208.568 Y80.299 E73.7379
G1 X208.803 Y80.782 E73.74881
G1 X208.963 Y81.293 E73.75969
G1 X209.046 Y81.823 E73.77059
G1 X209.057 Y82.11 E73.77643
G1 X209.057 Y132.89 E74.80804
G1 X209.017 Y133.425 E74.81894
G1 X208.898 Y133.948 E74.82984
G1 X208.703 Y134.447 E74.84072
G1 X208.435 Y134.912 E74.85162
G1 X208.102 Y135.332 E74.86251
G1 X207.71 Y135.698 E74.87341
G1 X207.268 Y136.001 E74.8843
G1 X206.785 Y136.236 E74.89521
G1 X206.274 Y136.396 E74.90609
G1 X205.744 Y136.479 E74.91698
G1 X205.457 Y136.49 E74.92282
G1 X27.677 Y136.49 E78.53449
G1 X27.142 Y136.45 E78.54539
G1 X26.619 Y136.331 E78.55629
G1 X26.12 Y136.136 E78.56717
G1 X25.655 Y135.868 E78.57807
G1 X25.235 Y135.535 E78.58896
G1 X24.869 Y135.143 E78.59986
G1 X24.566 Y134.701 E78.61074
G1 X24.331 Y134.218 E78.62166
G1 X24.171 Y133.707 E78.63254
G1 X24.088 Y133.177 E78.64343
G1 X24.077 Y132.89 E78.64927
G1 X24.077 Y82.11 E79.68088
M204 S429
G0 F4285.7 X24.557 Y82.11
M204 S1000
G1 F1200 X24.597 Y81.612 E79.69103
G1 X24.91 Y80.668 E79.71124
G1 X25.505 Y79.87 E79.73146
G1 X25.89 Y79.552 E79.7416
G1 X26.321 Y79.3 E79.75175
G1 X27.275 Y79.016 E79.77197
G1 X27.677 Y78.99 E79.78015
G1 X205.457 Y78.99 E83.39182
G1 X205.955 Y79.03 E83.40197
G1 X206.899 Y79.343 E83.42218
G1 X207.697 Y79.938 E83.4424
G1 X208.015 Y80.323 E83.45255
G1 X208.267 Y80.754 E83.46269
G1 X208.551 Y81.708 E83.48291
G1 X208.577 Y82.11 E83.49109
G1 X208.577 Y132.89 E84.52271
G1 X208.537 Y133.388 E84.53286
G1 X208.224 Y134.332 E84.55306
G1 X207.629 Y135.13 E84.57329
G1 X207.244 Y135.448 E84.58343
G1 X206.813 Y135.7 E84.59357
G1 X205.859 Y135.984 E84.61379
G1 X205.457 Y136.01 E84.62198
G1 X27.677 Y136.01 E88.23365
G1 X27.179 Y135.97 E88.2438
G1 X26.235 Y135.657 E88.264
G1 X25.437 Y135.062 E88.28423
G1 X25.119 Y134.677 E88.29437
G1 X24.867 Y134.246 E88.30451
G1 X24.583 Y133.292 E88.32474
G1 X24.557 Y132.89 E88.33292
G1 X24.557 Y82.11 E89.36454
M204 S429
G0 F4285.7 X25.037 Y82.11
M204 S1000
G1 F1200 X25.195 Y81.209 E89.38312
G1 X25.652 Y80.416 E89.40171
G1 X25.976 Y80.091 E89.41104
G1 X26.767 Y79.632 E89.42961
G1 X27.21 Y79.512 E89.43894
G1 X27.677 Y79.47 E89.44846
G1 X205.457 Y79.47 E93.06014
G1 X206.358 Y79.628 E93.07872
G1 X207.151 Y80.085 E93.09731
G1 X207.476 Y80.409 E93.10664
G1 X207.935 Y81.2 E93.12522
G1 X208.055 Y81.643 E93.13454
G1 X208.097 Y82.11 E93.14407
G1 X208.097 Y132.89 E94.17568
G1 X207.939 Y133.791 E94.19426
G1 X207.482 Y134.584 E94.21286
G1 X207.158 Y134.909 E94.22218
G1 X206.367 Y135.368 E94.24076
G1 X205.924 Y135.488 E94.25008
G1 X205.457 Y135.53 E94.25961
G1 X27.677 Y135.53 E97.87128
G1 X26.776 Y135.372 E97.88987
G1 X25.983 Y134.915 E97.90846
